X:1
T:McLachlan's March  "CYMRU"
M:3/4
L:1/8
Q:80
C:Archie Duncan
S:Retreat
K:HP
|: a3/2g/2{fg}f2{gf}ge | \
{Gdc}d{g}c{Gdc}df{g}A2 | \
{Gdc}d3/2e/2{g}fA{Gdc}df |
aA{gef}e2{A}e2 | | \
a3/2g/2{fg}f2{gf}ge | \
{Gdc}d{g}c{Gdc}df{g}A2 |
{Gdc}d3/2e/2{g}fA{Gdc}df | \
aA{Gdc}d2{gdc}d2 :: \
{g}c3/2d/2{gef}ec{g}A2 |
{Gdc}d3/2e/2{g}fa{Gdc}d2 | \
{g}e3/2f/2{gf}gA{Gdc}df | \
aA{gef}e2{A}e2| |
a3/2g/2{a}fe{Gdc}d{e}A | \
{a}g3/2f/2{gef}ed{gBd}B{e}G | \
{Gdc}d3/2e/2{g}fA{Gdc}df |
aA{Gdc}d2{gdc}d2 :|
